hornpipes/bobbycaseys.htmlhornpipes/bobbycaseys.htmlhornpipes/bobbycaseys.htmlhornpipes/bobbycaseys.htmlhornpipes/bobbycaseys.htmlhornpipes/bobbycaseys.htmlhornpipes/bobbycaseys.htmlhornpipes/bobbycaseys.htmlhornpipes/bobbycaseys.html<PRE>T:I Love You Not and I Care Not
T:I Love You Not and I Care Not
M:6/8
L:1/8
R:jig
D:Maeve Donnelly: Maeve Donnelly
Z:Devin McCabe
K:EMin
~E3 EDB,|G2F ~G2A|B2B BAF|ded B2e|
!dBG GAB|AFA DFA|GFE FED|1E2F G2F:|2E2E EGB|
!:~e3 edB|ded dBd|~e3 edB|ded B2e|
!dBG GAB|AFA DFA|GFE FED|1E2E EGB:|2E2F G2F||
hornpipes/bobbycaseys.htmlhornpipes/bobbycaseys.htmlhornpipes/bobbycaseys.htmlhornpipes/bobbycaseys.htmlhornpipes/bobbycaseys.htmlhornpipes/bobbycaseys.htmlhornpipes/bobbycaseys.html